Numix-GalliumOS/16/status/pamac-delete.svg

<?xml version="1.0" encoding="UTF-8" standalone="no"?>
<svg
   xmlns:dc="http://purl.org/dc/elements/1.1/"
   xmlns:cc="http://creativecommons.org/ns#"
   xmlns:rdf="http://www.w3.org/1999/02/22-rdf-syntax-ns#"
   xmlns:svg="http://www.w3.org/2000/svg"
   xmlns="http://www.w3.org/2000/svg"
   xmlns:sodipodi="http://sodipodi.sourceforge.net/DTD/sodipodi-0.dtd"
   xmlns:inkscape="http://www.inkscape.org/namespaces/inkscape"
   width="16"
   height="16"
   viewBox="0 0 16 16"
   id="svg2"
   version="1.1"
   inkscape:version="0.91 r"
   sodipodi:docname="pamac-delete.svg">
  <metadata
     id="metadata10">
    <rdf:RDF>
      <cc:Work
         rdf:about="">
        <dc:format>image/svg+xml</dc:format>
        <dc:type
           rdf:resource="http://purl.org/dc/dcmitype/StillImage" />
        <dc:title />
      </cc:Work>
    </rdf:RDF>
  </metadata>
  <defs
     id="defs8" />
  <sodipodi:namedview
     pagecolor="#ffffff"
     bordercolor="#666666"
     borderopacity="1"
     objecttolerance="10"
     gridtolerance="10"
     guidetolerance="10"
     inkscape:pageopacity="0"
     inkscape:pageshadow="2"
     inkscape:window-width="1366"
     inkscape:window-height="747"
     id="namedview6"
     showgrid="true"
     inkscape:zoom="16"
     inkscape:cx="-5.4517103"
     inkscape:cy="14.27832"
     inkscape:window-x="0"
     inkscape:window-y="21"
     inkscape:window-maximized="1"
     inkscape:current-layer="svg2">
    <inkscape:grid
       type="xygrid"
       id="grid4138" />
  </sodipodi:namedview>
  <path
     style="fill:#c28e5c"
     d="M 5 2 L 3 5 L 7.5 5 L 7.5 2 L 5 2 z M 8.5 2 L 8.5 5 L 13 5 L 11 2 L 8.5 2 z M 3 6 L 3 13 L 8.5527344 13 C 8.4051537 11.81457 8.7678893 10.57541 9.671875 9.671875 C 10.448604 8.8947583 11.477871 8.5 12.5 8.5 C 12.667313 8.5 12.833444 8.5277278 13 8.5488281 L 13 6 L 3 6 z "
     id="path4" />
  <g
     id="g4147"
     transform="matrix(0.15,0,0,0.15,8.9000002,8.9000001)"
     style="fill:#ee545b;fill-opacity:1">
    <path
       inkscape:connector-curvature="0"
       style="fill:#ee545b;fill-opacity:1"
       d="m 24.5,21 c -1.151587,0 -2.303174,0.439453 -3.181641,1.318359 -1.757812,1.756934 -1.757812,4.606348 0,6.363282 1.756934,1.757812 4.606348,1.757812 6.363282,0 1.757812,-1.756934 1.757812,-4.606348 0,-6.363282 C 26.803174,21.439453 25.651587,21 24.5,21 Z m 0,1.349609 c 0.591532,0 1.181338,0.168765 1.697266,0.5 l -4.347657,4.347657 C 21.066947,25.978199 21.206775,24.339338 22.273438,23.273438 22.888232,22.658203 23.693823,22.349609 24.5,22.349609 Z m 2.650391,1.453125 c 0.782662,1.219067 0.642834,2.857928 -0.423829,3.923828 -1.0659,1.066663 -2.704761,1.206491 -3.923828,0.423829 l 4.347657,-4.347657 z"
       transform="matrix(4.4444444,0,0,4.4444444,-84.888889,-89.333333)"
       id="path4137" />
  </g>
  <g
     id="g4147-5"
     transform="matrix(0.225,0,0,0.225,-46.928295,7.611356)"
     style="fill:#ee545b;fill-opacity:1;stroke:#000000;stroke-width:17.77777863;stroke-miterlimit:4;stroke-dasharray:none;stroke-opacity:1" />
  <g
     id="g4147-3"
     transform="matrix(0.175,0,0,0.175,-12.512491,9.3625)"
     style="fill:#ee545b;fill-opacity:1;stroke:#000000;stroke-width:22.8571434;stroke-miterlimit:4;stroke-dasharray:none;stroke-opacity:1" />
  <g
     id="g4147-34"
     transform="matrix(0.15,0,0,0.15,8.9000002,8.9000002)"
     style="fill:#ee545b;fill-opacity:1;stroke:#000000;stroke-opacity:1;stroke-width:13.33333333;stroke-miterlimit:4;stroke-dasharray:none" />
</svg>

<svg xmlns="http://www.w3.org/2000/svg" viewBox="0 0 16 16">
 <path d="m 5 2 l -2 3 l 4.5 0 l 0 -3 l -2.5 0 z m 3.5 0 l 0 3 l 4.5 0 l -2 -3 l -2.5 0 z m -5.5 4 l 0 7 l 5.553 0 c -0.148 -1.185 0.215 -2.425 1.119 -3.328 c 0.777 -0.777 1.806 -1.172 2.828 -1.172 c 0.167 0 0.333 0.028 0.5 0.049 l 0 -2.549 l -10 0 z" style="fill:#c28e5c"/>
 <g transform="matrix(0.15,0,0,0.15,8.9000002,8.9000001)" style="fill:#ee545b;fill-opacity:1">
  <path d="m 24.5 21 c -1.152 0 -2.303 0.439 -3.182 1.318 -1.758 1.757 -1.758 4.606 0 6.363 1.757 1.758 4.606 1.758 6.363 0 1.758 -1.757 1.758 -4.606 0 -6.363 c -0.878 -0.879 -2.03 -1.318 -3.182 -1.318 m 0 1.35 c 0.592 0 1.181 0.169 1.697 0.5 l -4.348 4.348 c -0.783 -1.219 -0.643 -2.858 0.424 -3.924 0.615 -0.615 1.42 -0.924 2.227 -0.924 m 2.65 1.453 c 0.783 1.219 0.643 2.858 -0.424 3.924 -1.066 1.067 -2.705 1.206 -3.924 0.424 l 4.348 -4.348 z" transform="matrix(4.4444444,0,0,4.4444444,-84.888889,-89.333333)"/>
 </g>
</svg>
